X:1
T:Title
%%score 1 { 2 | 3 }
L:1/8
Q:1/4=107
M:4/4
K:F
V:1 treble nm="Grand Piano, Soprano"
V:2 treble nm="Choir Pad, In the Vineyard"
V:3 bass 
V:1
 [FA]2 [Fc]2 [FB]2 [FA]2 | [DA]2 [DG]2 D2 [DG]2 | [CF]2 [CF]2 [CE]2 [CF]2 | [FA]2 [FG]2 [EG]4 | %4
w: By~Benjamin~Carl~Unseld * * *||||
 [FA]2 [Fc]2 [FB]2 [_EA]2 | [DA]2 [DG]2 D2 [^CG]2 | [CF]2 [CF]2 [=B,F]2 [_B,E]2 | %7
w: |||
 [B,D]2 [CE]2 [CF]4 | [EG]4 [Ec]4 | [Ge]2 [Fd]2 [Ec]2 [EG]2 | [GB]2 [GB]2 [FA]2 [Fd]2 | %11
w: ||||
 [Fd]2 [F=B]2 [Ec]2 [G_B]2 | [FA]2 [Fc]2 [FB]2 [_EA]2 | [DA]2 [DG]2 D2 [^CG]2 | %14
w: |||
 [CF]2 [CF]2 [=B,F]2 [_B,E]2 | [B,D]2 [CE]2 [CF]4- | [CF]4 z4 |] %17
w: |||
V:2
 C2 _E2 D2 C2 | B,2[K:bass] B,2 B,2 B,2 | A,2 A,2 G,2 A,2 | =B,2 B,2[K:treble] C4 | C2 _E2 D2 C2 | %5
 C2[K:bass] B,2 F,2 B,2 | A,2 A,2 G,2 G,2 | G,2 B,2 A,4 | C2 C2 C2 C2 | C2 C2 C2 C2 | %10
 C2 C2 C2 B,2 | =B,2 D2 C4 | C2 _E2 D2 C2 | C2[K:bass] B,2 F,2 G,2 | A,2 A,2 G,2 G,2 | %15
 G,2 B,2 A,4- | A,4 z4 |] %17
V:3
 F,2 F,2 F,2 F,2 | B,,2 B,,2 B,,2 B,,2 | C,2 C,2 C,2 C,2 | G,,2 G,,2 C,4 | F,2 F,2 F,2 F,2 | %5
 B,,2 B,,2 B,,2 B,,2 | C,2 C,2 D,2 C,2 | C,2 C,2 F,4 | C,2 C,2 C,2 C,2 | C,2 C,2 C,2 C,2 | %10
 E,2 E,2 F,2 z2 | G,2 G,2 C,2 E,2 | F,2 F,2 F,2 F,2 | B,,2 B,,2 B,,2 B,,2 | C,2 C,2 D,2 C,2 | %15
 C,2 C,2 F,4- | F,4 z4 |] %17

